Otagle3/Assets/ikonySvG/UsunRzadTabeli.svg

<svg id="SVGRoot" width="206px" height="206px" version="1.1" viewBox="0 0 206 206" xmlns="http://www.w3.org/2000/svg">
 <g transform="matrix(3.7795 0 0 3.7795 -1795.2 2502.6)">
  <flowRoot fill="black" font-family="sans-serif" font-size="40px" letter-spacing="0px" word-spacing="0px" style="line-height:1.25" xml:space="preserve"><flowRegion><rect x="-392.69" y="-63.57" width="758.02" height="397.52"/></flowRegion><flowPara/></flowRoot>
  <flowRoot fill="black" font-family="sans-serif" font-size="40px" letter-spacing="0px" word-spacing="0px" style="line-height:1.25" xml:space="preserve"><flowRegion><rect x="-251.87" y="-84.492" width="624.44" height="455.45"/></flowRegion><flowPara/></flowRoot>
  <flowRoot fill="black" font-family="sans-serif" font-size="40px" letter-spacing="0px" word-spacing="0px" style="line-height:1.25" xml:space="preserve"><flowRegion><rect x="-202.78" y="-50.695" width="473.96" height="281.64"/></flowRegion><flowPara/></flowRoot>
  <flowRoot fill="black" font-family="sans-serif" font-size="40px" letter-spacing="0px" word-spacing="0px" style="line-height:1.25" xml:space="preserve"><flowRegion><rect x="-86.906" y="-78.859" width="516.61" height="410.39"/></flowRegion><flowPara/></flowRoot>
  <flowRoot fill="black" font-family="sans-serif" font-size="40px" letter-spacing="0px" word-spacing="0px" style="line-height:1.25" xml:space="preserve"><flowRegion><rect x="-81.273" y="-32.188" width="309" height="322.68"/></flowRegion><flowPara/></flowRoot>
  <flowRoot fill="black" font-family="sans-serif" font-size="40px" letter-spacing="0px" word-spacing="0px" style="line-height:1.25" xml:space="preserve"><flowRegion><rect x="-90.93" y="-68.398" width="392.69" height="252.67"/></flowRegion><flowPara/></flowRoot>
  <g transform="translate(675.17 -.21291)">
   <flowRoot fill="black" font-family="sans-serif" font-size="40px" letter-spacing="0px" word-spacing="0px" style="line-height:1.25" xml:space="preserve"><flowRegion><rect x="-100.59" y="-53.109" width="462.7" height="369.35"/></flowRegion><flowPara/></flowRoot>
   <g transform="translate(57.194 .21291)">
    <flowRoot fill="black" font-family="sans-serif" font-size="40px" letter-spacing="0px" word-spacing="0px" style="line-height:1.25" xml:space="preserve"><flowRegion><rect x="-329.12" y="-12.07" width="696.05" height="259.91"/></flowRegion><flowPara/></flowRoot>
    <g transform="translate(-1495.1 -629.38)">
     <flowRoot fill="black" font-family="sans-serif" font-size="40px" letter-spacing="0px" word-spacing="0px" style="line-height:1.25" xml:space="preserve"><flowRegion><rect x="-306.59" y="-111.05" width="206" height="51.5"/></flowRegion><flowPara/></flowRoot>
     <flowRoot fill="black" font-family="sans-serif" font-size="40px" letter-spacing="0px" word-spacing="0px" style="line-height:1.25" xml:space="preserve"><flowRegion><rect x="-70.812" y="-36.211" width="362.91" height="283.25"/></flowRegion><flowPara/></flowRoot>
     <g transform="translate(1299.2 -400.97)">
      <rect x="-60.374" y="369.54" width="52.258" height="52.258" fill="#fff" stroke="#000" stroke-linecap="round" stroke-width=".5" style="paint-order:fill markers stroke"/>
      <text x="-34.339199" y="417.47357" font-family="sans-serif" font-size="6.35px" letter-spacing="0px" stroke-width=".26458" text-align="center" text-anchor="middle" word-spacing="0px" style="line-height:0.94999999" xml:space="preserve"><tspan x="-34.339199" y="417.47357" font-family="sans-serif" font-size="4.9389px" stroke-width=".26458" text-align="center" text-anchor="middle">Usuń rząd tabeli</tspan></text>
      <g transform="matrix(.42917 0 0 .42917 -53.406 369.11)">
       <path d="m87.059 13.325h-84.118c-1.624 0-2.941 1.317-2.941 2.941v57.468c0 1.625 1.317 2.941 2.941 2.941h84.119c1.624 0 2.941-1.316 2.941-2.941v-57.468c-.001-1.624-1.318-2.941-2.942-2.941zm-42.942 17.162v13.63h-20.293v-13.63zm-20.293-1.766v-13.63h20.293v13.63zm20.293 17.162v13.631h-20.293v-13.631zm0 15.395v13.631h-20.293v-13.631zm22.059-15.395v13.631h-20.293v-13.631zm-20.293-1.766v-13.63h20.293v13.63zm20.293 17.161v13.631h-20.293v-13.631zm0-32.557h-20.293v-13.63h20.293zm-64.411-12.455c0-.647.525-1.172 1.172-1.175h19.122v13.63h-20.294zm0 14.221h20.294v13.63h-20.294zm0 15.396h20.294v13.631h-20.294zm0 27.85v-12.455h20.294v13.631h-19.122c-.647-.003-1.172-.528-1.172-1.176zm86.469 0c0 .647-.524 1.173-1.172 1.176h-19.121v-13.631h20.293zm0-14.219h-20.293v-13.631h20.293zm0-15.397h-20.293v-13.63h20.293zm0-15.396h-20.293v-13.63h19.121c.647.003 1.172.528 1.172 1.175z"/>
       <path d="m17.813 18.121h-11.801c-.487 0-.883.396-.883.883v5.805c0 .487.396.883.883.883h11.801c.487 0 .883-.396.883-.883v-5.805c-.001-.488-.396-.883-.883-.883z"/>
       <path d="m17.813 33.517h-11.801c-.487 0-.883.394-.883.882v5.805c0 .487.396.882.883.882h11.801c.487 0 .883-.395.883-.882v-5.805c-.001-.488-.396-.882-.883-.882z"/>
       <path d="m17.813 48.913h-11.801c-.487 0-.883.395-.883.883v5.805c0 .487.396.883.883.883h11.801c.487 0 .883-.396.883-.883v-5.805c-.001-.488-.396-.883-.883-.883z"/>
       <path d="m17.813 64.309h-11.801c-.487 0-.883.395-.883.883v5.805c0 .487.396.883.883.883h11.801c.487 0 .883-.396.883-.883v-5.805c-.001-.489-.396-.883-.883-.883z"/>
       <path d="m39.871 18.121h-11.801c-.487 0-.883.396-.883.883v5.805c0 .487.396.883.883.883h11.801c.487 0 .883-.396.883-.883v-5.805c0-.488-.396-.883-.883-.883z"/>
       <path d="m50.129 25.691h11.801c.487 0 .883-.396.883-.883v-5.805c0-.487-.396-.883-.883-.883h-11.801c-.487 0-.883.396-.883.883v5.805c0 .487.396.883.883.883z"/>
       <path d="m83.988 18.121h-11.8c-.487 0-.883.396-.883.883v5.805c0 .487.396.883.883.883h11.801c.487 0 .883-.396.883-.883v-5.805c-.001-.488-.396-.883-.884-.883z"/>
      </g>
      <path d="m-13.297 391.69h-41.896" fill="none" stroke="#000" stroke-width="1.9864"/>
     </g>
    </g>
   </g>
  </g>
 </g>
</svg>

<?xml version="1.0" encoding="UTF-8" standalone="no"?>
<svg
   xmlns:dc="http://purl.org/dc/elements/1.1/"
   xmlns:cc="http://creativecommons.org/ns#"
   xmlns:rdf="http://www.w3.org/1999/02/22-rdf-syntax-ns#"
   xmlns:svg="http://www.w3.org/2000/svg"
   xmlns="http://www.w3.org/2000/svg"
   id="svg47"
   version="1.1"
   viewBox="0 0 52.758294 52.758296"
   height="199.40143"
   width="199.40143">
  <defs
     id="defs42">
    <pattern
       id="EMFhbasepattern"
       patternUnits="userSpaceOnUse"
       width="6"
       height="6"
       x="0"
       y="0" />
  </defs>
  <metadata
     id="metadata45">
    <rdf:RDF>
      <cc:Work
         rdf:about="">
        <dc:format>image/svg+xml</dc:format>
        <dc:type
           rdf:resource="http://purl.org/dc/dcmitype/StillImage" />
        <dc:title></dc:title>
      </cc:Work>
    </rdf:RDF>
  </metadata>
  <g
     id="g8556"
     transform="translate(60.760028,-369.22218)">
    <rect
       style="fill:#ffffff;stroke:#000000;stroke-width:0.49999899;stroke-linecap:round;stroke-miterlimit:4;stroke-dasharray:none;stroke-opacity:1;paint-order:fill markers stroke"
       id="rect833-1-5-3-7-4-8"
       width="52.258293"
       x="-60.374138"
       y="369.54422"
       height="52.258293" />
    <text
       xml:space="preserve"
       style="font-size:6.3499999px;line-height:0.94999999;font-family:voestalpine;-inkscape-font-specification:voestalpine;text-align:center;letter-spacing:0px;word-spacing:0px;text-anchor:middle;stroke-width:0.26458299"
       x="-34.339199"
       y="419.12051"
       id="text898-7-3-6-8-3-3"><tspan
         id="tspan1396-8"
         x="-34.339199"
         y="419.12051"
         style="font-size:6.3499999px;text-align:center;text-anchor:middle;stroke-width:0.26458299">Usuń rząd tabeli</tspan></text>
    <g
       id="g5305">
      <g
         transform="matrix(0.42916795,0,0,0.42916795,-53.406071,369.11357)"
         id="g1508-9"
         style="fill:#000000">
        <path
           d="M 87.059,13.325 H 67.941 66.175 45.883 44.117 23.824 22.058 2.941 C 1.317,13.325 0,14.642 0,16.266 v 12.455 1.766 13.63 1.766 13.631 1.765 12.455 c 0,1.625 1.317,2.941 2.941,2.941 h 19.118 1.766 20.293 1.766 20.293 1.766 19.117 c 1.624,0 2.941,-1.316 2.941,-2.941 V 61.278 59.513 45.883 44.117 30.487 28.721 16.266 C 90,14.642 88.683,13.325 87.059,13.325 Z M 44.117,30.487 v 13.63 H 23.824 V 30.487 Z M 23.824,28.721 v -13.63 h 20.293 v 13.63 z M 44.117,45.883 V 59.514 H 23.824 V 45.883 Z m 0,15.395 V 74.909 H 23.824 V 61.278 Z M 66.176,45.883 V 59.514 H 45.883 V 45.883 Z M 45.883,44.117 v -13.63 h 20.293 v 13.63 z M 66.176,61.278 V 74.909 H 45.883 V 61.278 Z m 0,-32.557 H 45.883 V 15.091 H 66.176 Z M 1.765,16.266 c 0,-0.647 0.525,-1.172 1.172,-1.175 h 19.122 v 13.63 H 1.765 Z m 0,14.221 h 20.294 v 13.63 H 1.765 Z m 0,15.396 H 22.059 V 59.514 H 1.765 Z m 0,27.85 V 61.278 H 22.059 V 74.909 H 2.937 C 2.29,74.906 1.765,74.381 1.765,73.733 Z m 86.469,0 c 0,0.647 -0.524,1.173 -1.172,1.176 H 67.941 V 61.278 h 20.293 z m 0,-14.219 H 67.941 V 45.883 h 20.293 z m 0,-15.397 H 67.941 v -13.63 h 20.293 z m 0,-15.396 H 67.941 v -13.63 h 19.121 c 0.647,0.003 1.172,0.528 1.172,1.175 z"
           id="path1492-9" />
        <path
           d="M 17.813,18.121 H 6.012 c -0.487,0 -0.883,0.396 -0.883,0.883 v 5.805 c 0,0.487 0.396,0.883 0.883,0.883 h 11.801 c 0.487,0 0.883,-0.396 0.883,-0.883 V 19.004 C 18.695,18.516 18.3,18.121 17.813,18.121 Z"
           id="path1494-0" />
        <path
           d="M 17.813,33.517 H 6.012 c -0.487,0 -0.883,0.394 -0.883,0.882 v 5.805 c 0,0.487 0.396,0.882 0.883,0.882 h 11.801 c 0.487,0 0.883,-0.395 0.883,-0.882 V 34.399 C 18.695,33.911 18.3,33.517 17.813,33.517 Z"
           id="path1496-9" />
        <path
           d="M 17.813,48.913 H 6.012 c -0.487,0 -0.883,0.395 -0.883,0.883 v 5.805 c 0,0.487 0.396,0.883 0.883,0.883 h 11.801 c 0.487,0 0.883,-0.396 0.883,-0.883 V 49.796 C 18.695,49.308 18.3,48.913 17.813,48.913 Z"
           id="path1498-6" />
        <path
           d="M 17.813,64.309 H 6.012 c -0.487,0 -0.883,0.395 -0.883,0.883 v 5.805 c 0,0.487 0.396,0.883 0.883,0.883 h 11.801 c 0.487,0 0.883,-0.396 0.883,-0.883 V 65.192 C 18.695,64.703 18.3,64.309 17.813,64.309 Z"
           id="path1500-5" />
        <path
           d="M 39.871,18.121 H 28.07 c -0.487,0 -0.883,0.396 -0.883,0.883 v 5.805 c 0,0.487 0.396,0.883 0.883,0.883 h 11.801 c 0.487,0 0.883,-0.396 0.883,-0.883 v -5.805 c 0,-0.488 -0.396,-0.883 -0.883,-0.883 z"
           id="path1502-9" />
        <path
           d="M 50.129,25.691 H 61.93 c 0.487,0 0.883,-0.396 0.883,-0.883 v -5.805 c 0,-0.487 -0.396,-0.883 -0.883,-0.883 H 50.129 c -0.487,0 -0.883,0.396 -0.883,0.883 v 5.805 c 0,0.487 0.396,0.883 0.883,0.883 z"
           id="path1504-5" />
        <path
           d="m 83.988,18.121 h -11.8 c -0.487,0 -0.883,0.396 -0.883,0.883 v 5.805 c 0,0.487 0.396,0.883 0.883,0.883 h 11.801 c 0.487,0 0.883,-0.396 0.883,-0.883 v -5.805 c -0.001,-0.488 -0.396,-0.883 -0.884,-0.883 z"
           id="path1506-3" />
      </g>
      <path
         style="fill:none;stroke:#000000;stroke-width:1.98643994;stroke-linecap:butt;stroke-linejoin:miter;stroke-miterlimit:4;stroke-dasharray:none;stroke-opacity:1"
         d="M -13.297119,391.68675 H -55.192866"
         id="path1529-6" />
    </g>
  </g>
</svg>
